gr/freebsd.svg

<svg xmlns="http://www.w3.org/2000/svg" viewBox="0 0 24 24" height="1em" width="1em">
  <path fill="#9B2718" fill-rule="evenodd" d="M23.7253418,0.403330656 C24.9975688,1.67496208 21.4706794,7.26490597 20.8744345,7.86115088 C20.2781896,8.45650302 18.7637754,7.90875554 17.4918461,6.63682558 C16.2196191,5.36519416 15.6715737,3.85048208 16.2678187,3.25423717 C16.8640636,2.65769514 22.4534125,-0.868896418 23.7253418,0.403330656 L23.7253418,0.403330656 Z M5.88500669,1.74874919 C3.94274831,0.64670772 1.17931401,-0.579104582 0.300120884,0.300088547 C-0.590973233,1.19058772 0.680063246,4.01650237 1.79341076,5.96233113 C2.78417662,4.23935071 4.19415887,2.78890453 5.88500669,1.74874919 L5.88500669,1.74874919 Z M21.785166,7.42259564 C21.9639794,8.02925383 21.9315489,8.53058725 21.6417578,8.81978414 C20.9639901,9.49755113 19.1338994,8.77634479 17.4844083,7.20599597 C17.3689674,7.10275387 17.2550141,6.99564356 17.1428465,6.88317878 C16.5466016,6.28633892 16.0821617,5.65081997 15.785527,5.06617893 C15.2077288,4.02989107 15.0631307,3.11410221 15.4999004,2.67762963 C15.7379223,2.43960776 16.1187574,2.37474692 16.583198,2.45864948 C16.8863778,2.2673395 17.2437081,2.05371455 17.6358493,1.83503223 C16.0414007,1.00344305 14.2288637,0.533647279 12.305647,0.533647279 C5.92785039,0.533647279 0.757122899,5.70348271 0.757122899,12.0821714 C0.757122899,18.4596702 5.92785039,23.6301005 12.305647,23.6301005 C18.683741,23.6301005 23.8544685,18.4596702 23.8544685,12.0821714 C23.8544685,10.0223894 23.313861,8.09084213 22.3692121,6.41635843 C22.1648105,6.78856511 21.9663598,7.12982838 21.785166,7.42259564 L21.785166,7.42259564 Z"/>
</svg>

<svg xmlns="http://www.w3.org/2000/svg" viewBox="0 0 24 24" height="1em" width="1em">
  <path fill="#9B2718" fill-rule="evenodd" d="M23.725.403c1.273 1.272-2.254 6.862-2.85 7.458-.597.596-2.111.048-3.383-1.224-1.272-1.272-1.82-2.787-1.224-3.383.596-.596 6.185-4.123 7.457-2.85ZM5.885 1.75C3.943.647 1.179-.58.3.3c-.891.89.38 3.717 1.493 5.662A11.945 11.945 0 0 1 5.885 1.75Zm15.9 5.674c.179.606.147 1.108-.143 1.397-.678.678-2.508-.044-4.158-1.614a8.227 8.227 0 0 1-.341-.323c-.596-.597-1.06-1.232-1.357-1.817-.578-1.036-.723-1.952-.286-2.388.238-.238.619-.303 1.083-.22.303-.19.66-.404 1.053-.623a11.491 11.491 0 0 0-5.33-1.301C5.928.534.757 5.704.757 12.082S5.927 23.63 12.306 23.63c6.378 0 11.548-5.17 11.548-11.548 0-2.06-.54-3.991-1.485-5.666-.204.373-.403.714-.584 1.007Z"/>
</svg>
